resources/svg/threats.svg

<svg viewBox="0 0 24 24"><path fill="none" stroke="currentColor" stroke-width="2" d="M9 23A7 7 0 1 0 9 9a7 7 0 0 0 0 14zM9 6V5c0-3 2-4 4-4s4 1 4 4v3c0 1 0 3 2 3s2-2 2-3c0-2 1-2 2-2m-11 7l-6 6m0-6l6 6m-6-9V6h6v4"/></svg>

<svg xmlns="http://www.w3.org/2000/svg" viewBox="0 0 24 24" fill="currentColor"><path fill="none" stroke="currentColor" stroke-width="2" d="M9,23 C12.8659932,23 16,19.8659932 16,16 C16,12.1340068 12.8659932,9 9,9 C5.13400675,9 2,12.1340068 2,16 C2,19.8659932 5.13400675,23 9,23 Z M9,6 C9,6 9,8 9,5 C9,2 11,1 13,1 C15,1 17,2 17,5 L17,8 C17,9 17,11 19,11 C21,11 21,9 21,8 C21,6 22,6 23,6 M12,13 L6,19 M6,13 L12,19 M6,10 L6,6 L12,6 L12,10"/></svg>
